packages/symbols/svgs/solid/style-solid.svg

<svg width="16" height="16" viewBox="0 0 16 16" fill="none" xmlns="http://www.w3.org/2000/svg">
<g clip-path="url(#clip0_1117_8939)">
<path fill-rule="evenodd" clip-rule="evenodd" d="M14 7.829V14H2V2H8.172L10.172 0L1 0C0.734784 0 0.48043 0.105357 0.292893 0.292893C0.105357 0.48043 0 0.734784 0 1L0 15C0 15.2652 0.105357 15.5196 0.292893 15.7071C0.48043 15.8946 0.734784 16 1 16H15C15.2652 16 15.5196 15.8946 15.7071 15.7071C15.8946 15.5196 16 15.2652 16 15V5.828L14 7.829ZM15.4 0.6C14.9956 0.214835 14.4585 0 13.9 0C13.3415 0 12.8044 0.214835 12.4 0.6L8.70001 4.3C9.43044 4.55248 10.0882 4.97952 10.616 5.544C11.0849 6.05943 11.4469 6.66273 11.681 7.319L15.4 3.6C15.7852 3.19558 16 2.65849 16 2.1C16 1.54151 15.7852 1.00442 15.4 0.6ZM3.53699 12.6C3.53699 12.6 3.73699 8.1 4.93699 6.9C5.20784 6.6156 5.53364 6.38919 5.89462 6.23448C6.2556 6.07977 6.64425 6 7.03699 6C7.42973 6 7.81837 6.07977 8.17935 6.23448C8.54034 6.38919 8.86613 6.6156 9.13699 6.9C9.68978 7.45916 9.9998 8.21372 9.9998 9C9.9998 9.78628 9.68978 10.5408 9.13699 11.1C7.93699 12.2 3.53699 12.6 3.53699 12.6Z" fill="black"/>
</g>
<defs>
<clipPath id="clip0_1117_8939">
<rect width="16" height="16" fill="white"/>
</clipPath>
</defs>
</svg>

<svg width="16" height="16" viewBox="0 0 16 16" xmlns="http://www.w3.org/2000/svg"><g clip-path="url(#a)"><path fill-rule="evenodd" clip-rule="evenodd" d="M14 7.829V14H2V2h6.172l2-2H1a1 1 0 0 0-1 1v14a1 1 0 0 0 1 1h14a1 1 0 0 0 1-1V5.828l-2 2.001ZM15.4.6a2.175 2.175 0 0 0-3 0L8.7 4.3a4.75 4.75 0 0 1 1.916 1.244 5.28 5.28 0 0 1 1.065 1.775L15.4 3.6a2.175 2.175 0 0 0 0-3Zm-11.863 12s.2-4.5 1.4-5.7a2.9 2.9 0 0 1 4.2 0 2.987 2.987 0 0 1 0 4.2c-1.2 1.1-5.6 1.5-5.6 1.5Z"/></g><defs><clipPath id="a"><path fill="#fff" d="M0 0h16v16H0z"/></clipPath></defs></svg>
